!!!COA: Josquin des Prez
!!!CDT: ~1450-1521/08/27
!!!OTL@@LAT: Recordare, virgo mater
!!!OTL2@@LAT: Et ut avertat
!!!AGN: Motet
!!!SCT: NJE 25.1
!!!SCA: New Josquin Edition 25.1
!!!voices: 4
**kern	**kern	**kern	**kern
*staff4	*staff3	*staff2	*staff1
*Ivox	*Ivox	*Ivox	*Ivox
*I"Altus	*I"Superius3	*I"Superius2	*I"Superius1
*I'A	*I'S3	*I'S2	*I'S1
*>[A,B]	*>[A,B]	*>[A,B]	*>[A,B]
*>Part1[A]	*>Part1[A]	*>Part1[A]	*>Part1[A]
*>Part2[B]	*>Part2[B]	*>Part2[B]	*>Part2[B]
*clefG2	*clefG2	*clefG2	*clefG2
*k[]	*k[]	*k[]	*k[]
*>A	*>A	*>A	*>A
*M2/1	*M2/1	*M2/1	*M2/1
*met(C|)	*met(C|)	*met(C|)	*met(C|)
=1-	=1-	=1-	=1-
1d	0r	0r	0r
1f	.	.	.
=2	=2	=2	=2
1f	0r	0r	0r
1g	.	.	.
=3	=3	=3	=3
2.f/	1d	0r	0r
4g/	.	.	.
4a/	1f	.	.
4b-i\	.	.	.
[2a/	.	.	.
=4	=4	=4	=4
2a/]	1f	0r	0r
4g/	.	.	.
4f/	.	.	.
1e	1g	.	.
=5	=5	=5	=5
2r	2.f/	1d	0r
2.a/	.	.	.
.	4g/	.	.
.	4a/	1f	.
4g/	4b-i\	.	.
[2cc\	[2a/	.	.
=6	=6	=6	=6
2cc\]	2a/]	1f	0r
4b\	4g/	.	.
4a/	4f/	.	.
1b	1e	1g	.
=7	=7	=7	=7
2r	1a	2.f/	1d
2.a/	.	.	.
.	.	4g/	.
.	4d/	4a/	1f
4g/	4e/	4b-i\	.
4f/	4f/	[2a/	.
4e/	4g/	.	.
=8	=8	=8	=8
1d	2a/	2a/]	1f
.	2b\	4g/	.
.	.	4f/	.
1c	1cc	1e	1g
=9	=9	=9	=9
0d	2r	1a	2.f/
.	2.a/	.	.
.	.	.	4g/
.	.	2.f/	4a/
.	4g/	.	4b-i\
.	4f/	.	[2a/
.	4e/	4g/	.
=10	=10	=10	=10
1d	1f	2a/	2a/]
.	.	2b\	4g/
.	.	.	4f/
1c	1g	2.cc\	1e
.	.	4b\	.
=11	=11	=11	=11
1.d	1.f	4a/	2r
.	.	4g/	.
.	.	4f/	2a/
.	.	4e/	.
.	.	2d/	2b\
2c/	2e/	[2a/	2cc\
=12	=12	=12	=12
2d/	2f/	4a/]	2a/
.	.	8g/L	.
.	.	8f/J	.
2B/	2d/	2g/	2dd\
2A/	2e/	1a	2cc\
2d/	2f/	.	2dd\
=13	=13	=13	=13
2e/	2g/	2g/	2b\
2c/	2e/	2.cc\	2.ee\
1A	2.a/	.	.
.	.	4b\	4dd\
.	.	[2a/	4cc\
.	4g/	.	4b\
=14	=14	=14	=14
2d/	4f/	2a/]	2a/
.	4e/	.	.
2B/	2d/	2g/	1dd
1A	1e	1a	.
.	.	.	2cc#i\
=15	=15	=15	=15
2r	0d	2r	0dd
2.d/	.	2.f/	.
4e/	.	4g/	.
[2f/	.	4a/	.
.	.	4g/	.
=16	=16	=16	=16
4f/]	1r	4a/	1r
4e/	.	4b\	.
4d/	.	1cc	.
4c/	.	.	.
1d	1f	.	1dd
.	.	2b\	.
=17	=17	=17	=17
0c	1g	0cc	1ee
.	1g	.	4ee\
.	.	.	4dd\
.	.	.	4cc\
.	.	.	4b\
=18	=18	=18	=18
0r	2.f/	1r	2.a/
.	4g/	.	4b\
.	4a/	1f	4cc\
.	4b-i\	.	4dd\
.	[2a/	.	[2cc\
=19	=19	=19	=19
1r	2a/]	2.a/	2cc\]
.	4g/	.	4b\
.	4f/	4b\	4a/
1c	1e	1cc	1g
=20	=20	=20	=20
2.d/	1f	1a	1f
4e/	.	.	.
2f/	1r	2dd\	1r
[2g/	.	[2ee\	.
=21	=21	=21	=21
4g/]	1r	4ee\]	1r
4f/	.	4dd\	.
4e/	.	2.dd\	.
4d/	.	.	.
1e	1c	.	1g
.	.	4cc#i\	.
.	.	4cc#i\	.
.	.	4b\	.
=22	=22	=22	=22
1d	2.f/	1dd	2.a/
.	4d/	.	4b\
2c/	2e/	1r	2cc\
2d/	2f/	.	2a/
=23	=23	=23	=23
0r	2.g/	2.dd\	2.b\
.	4e/	4cc\	4cc\
.	2f/	2a/	2dd\
.	2g/	2dd\	2b\
=24	=24	=24	=24
0A	2.a/	2cc\	2.cc\
.	.	2.a/	.
.	4b\	.	4dd\
.	2cc\	.	2ee\
.	.	4g/	.
.	2a/	2e/	2cc\
=25	=25	=25	=25
2d/	2b\	2f/	2dd\
2c/	2.cc\	2g/	2.ee\
1A	.	[1a	.
.	4b\	.	4dd\
.	4a/	.	4cc\
.	4g/	.	4b\
=26	=26	=26	=26
2.d/	2.f/	1a]	2a/
.	.	.	2.d/
4e/	4g/	.	.
2f/	1a	2r	.
.	.	.	4e/
[2d/	.	[2f/	4f/
.	.	.	4g/
=27	=27	=27	=27
4d/]	2f/	2f/]	4a/
4c/	.	.	4b\
2A/	2a/	1e	4cc\
.	.	.	4dd\
2c/	2g/	.	2ee\
2d/	2f/	[2a/	2dd\
=28	=28	=28	=28
2A/	2e/	2a/]	2cc\
2B/	2d/	2g/	1dd
1A	1e	1a	.
.	.	.	2cc#i\
=29	=29	=29	=29
2r	0d	1f	0dd
2.a/	.	.	.
.	.	1d	.
4g/	.	.	.
4f/	.	.	.
4e/	.	.	.
=30	=30	=30	=30
4d/	0r	1f	0r
4c/	.	.	.
1f	.	.	.
.	.	1g	.
2e/	.	.	.
=31	=31	=31	=31
1f	0r	2.a/	0r
.	.	4b\	.
1f	.	4a/	.
.	.	4b\	.
.	.	[2cc\	.
=32	=32	=32	=32
0g	0r	2cc\]	0r
.	.	4b\	.
.	.	4a/	.
.	.	1b	.
=33	=33	=33	=33
1f	1r	1a	1cc
1d	1f	2r	2.dd\
.	.	2a/	.
.	.	.	8cc\L
.	.	.	8b\J
=34	=34	=34	=34
2r	1f	1a	2a/
2d/	.	.	1dd
1e	1g	1g	.
.	.	.	2cc#i\
=35	=35	=35	=35
1.d	2.a/	1f	2dd\
.	.	.	4d/
.	4g/	.	4e/
.	2f/	4d/	4f/
.	.	4e/	4g/
4c/	4e/	4f/	4a/
4B/	4d/	4g/	4b\
=36	=36	=36	=36
[0A	0e	4a/	2cc\
.	.	4b\	.
.	.	2cc\	4a/
.	.	.	4b\
.	.	4a/	4cc\
.	.	4b\	4dd\
.	.	4cc\	[2ee\
.	.	4dd\	.
=37	=37	=37	=37
0A]	2.c/	2.ee\	4ee\]
.	.	.	4dd\
.	.	.	4cc\
.	4d/	4dd\	4b\
.	2e/	4cc\	2.a/
.	.	4b\	.
.	2f/	[2a/	.
.	.	.	4b\
=38	=38	=38	=38
2A/	2e/	2a/]	2cc\
2B/	2d/	2g/	1dd
1A	1e	[1a	.
.	.	.	2cc#i\
=39	=39	=39	=39
1d	0d	1a]	1dd
1r	.	1r	2dd\
.	.	.	4cc\
.	.	.	4b\
=40	=40	=40	=40
1d	0r	1f	4a/
.	.	.	4g/
.	.	.	4f/
.	.	.	4e/
1f	.	1a	1d
=41	=41	=41	=41
2e/	1r	2g/	1r
4d/	.	1cc	.
4c/	.	.	.
1d	1f	.	1dd
.	.	2b\	.
=42	=42	=42	=42
1c	1g	0cc	1.ee
1A	1a	.	.
.	.	.	4dd\
.	.	.	4cc\
=43	=43	=43	=43
1r	2g/	1r	2b\
.	2.a/	.	1cc
1A	.	[1ee	.
.	4b\	.	.
.	2cc\	.	4b\
.	.	.	4a/
=44	=44	=44	=44
2e/	2b\	2ee\]	2g/
2f/	2a/	2dd\	1a
1e	1b	1ee	.
.	.	.	2g#i/
=45	=45	=45	=45
0A	0a	2.cc\	1a
.	.	4dd\	.
.	.	1ee	2r
.	.	.	[2cc\
=46	=46	=46	=46
0r	1f	1a	2cc\]
.	.	.	1dd
.	1g	1b	.
.	.	.	[2ee\
=47	=47	=47	=47
1A	1a	1cc	4ee\]
.	.	.	4dd\
.	.	.	4cc\
.	.	.	4b\
1d	1f	1dd	2a/
.	.	.	2b\
=48	=48	=48	=48
1c	1g	2.ee\	2.cc\
.	.	4dd\	4dd\
1A	2r	4cc\	2ee\
.	.	4b\	.
.	2e/	2a/	2cc\
=49	=49	=49	=49
2d/	2.f/	2b\	2dd\
2c/	.	2.cc\	2.ee\
.	4g/	.	.
1A	2.a/	.	.
.	.	4b\	4dd\
.	.	4a/	4cc\
.	4b\	4g/	4b\
=50	=50	=50	=50
2r	2cc\	2f/	4a/
.	.	.	4g/
2.a/	2.f/	2.d/	4f/
.	.	.	4e/
.	.	.	1d
4g/	4g/	4e/	.
4f/	[2a/	4f/	.
4e/	.	4g/	.
=51	=51	=51	=51
1.d	2a/]	2.a/	4d/
.	.	.	4e/
.	2.f/	.	4f/
.	.	4g/	4g/
.	.	2f/	4a/
.	4g/	.	4b\
2A/	2a/	[2e/	4cc\
.	.	.	4dd\
=52	=52	=52	=52
2c/	2g/	2e/]	2ee\
2d/	2f/	1a	1dd
1A	1e	.	.
.	.	2a/	2cc#i\
=53	=53	=53	=53
0dl	0dl	0al	0ddl
!!LO:LB:i:g=z
=54||	=54||	=54||	=54||
*>B	*>B	*>B	*>B
!!section: Secunda pars: Et ut avertat
!!!OMD: Secunda pars: Et ut avertat
*M2/1	*M2/1	*M2/1	*M2/1
*met(C|)	*met(C|)	*met(C|)	*met(C|)
0f	0r	0r	1a
.	.	.	4a/
.	.	.	4g/
.	.	.	4a/
.	.	.	4b\
=55	=55	=55	=55
1f	0r	0r	2cc\
.	.	.	1dd
1g	.	.	.
.	.	.	[2ee\
=56	=56	=56	=56
1a	0r	0r	4ee\]
.	.	.	4dd\
.	.	.	4cc\
.	.	.	4b\
[1f	.	.	2.a/
.	.	.	4b\
=57	=57	=57	=57
2f/]	1r	1r	4cc\
.	.	.	4a/
4e/	.	.	1dd
4d/	.	.	.
1e	2r	1g	.
.	2c/	.	2cc\
=58	=58	=58	=58
1r	2.f/	2.a/	2dd\
.	.	.	2.a/
.	4g/	4g/	.
2r	2a/	2f/	.
.	.	.	4b\
2c/	[2g/	2e/	[2cc\
=59	=59	=59	=59
1d	4g/]	4f/	2cc\]
.	4f/	4g/	.
.	1f	4a/	2b\
.	.	4f/	.
1c	.	1g	[1cc
.	2e/	.	.
=60	=60	=60	=60
0f	1f	0a	1cc]
.	1r	.	1cc
=61	=61	=61	=61
1d	1f	1a	1dd
1d	1a	1f	1dd
=62	=62	=62	=62
1c	1cc	1g	1ee
1e	1cc	1g	1ee
=63	=63	=63	=63
1d	1dd	1f	1a
1e	1b	1g	[1ee
=64	=64	=64	=64
1c	0cc	0g	0ee]
1c	.	.	.
=65	=65	=65	=65
0d	0a	0f	0dd
=66	=66	=66	=66
1f	1d	1a	1dd
[1d	[1f	[1a	[1dd
=67	=67	=67	=67
2d/]	2f/]	2a/]	2dd\]
2d/	2f/	2a/	2dd\
2B/	2g/	2d/	2dd\
2B/	2g/	2d/	2dd\
=68	=68	=68	=68
0A	2.a/	0e	2.cc\
.	4g/	.	4b\
.	4a/	.	4a/
.	4b\	.	4g/
.	[2cc\	.	[2a/
=69	=69	=69	=69
1r	2cc\]	1r	2a/]
.	4b\	.	4g/
.	4a/	.	4f/
1c	1g	1cc	1e
=70	=70	=70	=70
4d/	0f	2.a/	1f
4c/	.	.	.
4d/	.	.	.
4e/	.	4g/	.
4f/	.	4a/	1r
4g/	.	4b\	.
2a/	.	2cc\	.
=71	=71	=71	=71
2f/	0r	2dd\	0r
2g/	.	2.ee\	.
1d	.	.	.
.	.	4dd\	.
.	.	[2dd\	.
=72	=72	=72	=72
1e	1r	2dd\]	1g
.	.	2cc#i\	.
1d	2.f/	1dd	2.a/
.	4e/	.	4g/
=73	=73	=73	=73
2r	4f/	2dd\	4a/
.	4g/	.	4b\
2A/	2a/	2.a/	2cc\
2d/	2f/	.	2dd\
.	.	4b\	.
2c/	2g/	2cc\	[2ee\
=74	=74	=74	=74
1B-	1d	1g	4ee\]
.	.	.	4dd\
.	.	.	1dd
1A	1e	1a	.
.	.	.	2cc#i\
=75	=75	=75	=75
2r	0d	2f/	0dd
2.a/	.	2d/	.
.	.	2.f/	.
4g/	.	.	.
4f/	.	.	.
4e/	.	4g/	.
=76	=76	=76	=76
1d	1r	0a	2r
.	.	.	1dd
1r	1d	.	.
.	.	.	4cc\
.	.	.	4b\
=77	=77	=77	=77
0r	1f	1r	4a/
.	.	.	4g/
.	.	.	4a/
.	.	.	4b\
.	1f	2r	2cc\
.	.	2a/	[2dd\
=78	=78	=78	=78
1r	1g	4b\	4dd\]
.	.	4a/	4cc\
.	.	4b\	4b\
.	.	4cc\	4a/
1g	1g	2dd\	1b
.	.	2ee\	.
=79	=79	=79	=79
1a	0f	2cc\	0a
.	.	1dd	.
1d	.	.	.
.	.	4cc\	.
.	.	4b\	.
=80	=80	=80	=80
1f	0r	1a	0r
2g/	.	2b\	.
[2a/	.	[2cc\	.
=81	=81	=81	=81
4a/]	0r	4cc\]	0r
4g/	.	4b\	.
1f	.	2a/	.
.	.	1g	.
2e/	.	.	.
=82	=82	=82	=82
1f	1r	1f	2r
.	.	.	1f
2d/	1f	2.a/	.
[2f/	.	.	[2a/
.	.	4b\	.
=83	=83	=83	=83
2f/]	1a	1cc	2a/]
4e/	.	.	2.cc\
4d/	.	.	.
1c	1cc	1r	.
.	.	.	4dd\
.	.	.	2ee\
=84	=84	=84	=84
0g	2b\	0r	2dd\
.	1dd	.	2.b\
.	.	.	4cc\
.	4cc\	.	2dd\
.	4b\	.	.
=85	=85	=85	=85
2r	2a/	1r	2cc\
2g/	2.b\	.	2.dd\
2g/	.	2r	.
.	4a/	.	4cc\
2g/	[2g/	2dd\	2b\
=86	=86	=86	=86
1d	2g/]	2dd\	1a
.	2f#i/	2dd\	.
1r	1g	1dd	1b
=87	=87	=87	=87
1c	1g	1cc	1ee
1d	1f	1a	1dd
=88	=88	=88	=88
1B	1f	1d	1dd
1B	1g	1d	1dd
=89	=89	=89	=89
0A	0a	0e	0cc
=90	=90	=90	=90
1.d	1r	1f	2r
.	.	.	1f
.	1f	2.a/	.
[2f/	.	.	[2a/
.	.	4b\	.
=91	=91	=91	=91
2f/]	1a	1cc	2a/]
4e/	.	.	2.cc\
4d/	.	.	.
1c	1cc	1r	.
.	.	.	4dd\
.	.	.	2ee\
=92	=92	=92	=92
0g	2b\	0r	2dd\
.	1dd	.	2.b\
.	.	.	4cc\
.	4cc\	.	2dd\
.	4b\	.	.
=93	=93	=93	=93
2r	2a/	1r	2cc\
2g/	2.b\	.	2.dd\
2g/	.	2r	.
.	4a/	.	4cc\
2g/	[2g/	2dd\	2b\
=94	=94	=94	=94
1d	2g/]	2dd\	1a
.	2f#/	2dd\	.
1r	1g	4dd\	1b
.	.	4cc\	.
.	.	4b\	.
.	.	4a/	.
=95	=95	=95	=95
1r	1g	2b\	1r
.	.	2b\	.
1d	1f	2.a/	1dd
.	.	4b\	.
=96	=96	=96	=96
1c	2.g/	1cc	1ee
.	4a/	.	.
2d/	2b\	2f/	2dd\
2c/	[2cc\	2g/	[2ee\
=97	=97	=97	=97
4A/	2cc\]	1a	2ee\]
4B/	.	.	.
4c/	4b\	.	4dd\
4d/	4a/	.	4cc\
2e/	2g/	2r	2b\
[2A/	[2a/	[2ee\	[2cc\
=98	=98	=98	=98
1A]	4a/]	2ee\]	4cc\]
.	4b\	.	4b\
.	2cc\	2ee\	1a
1e	1b	2ee\	.
.	.	2ee\	2g#i/
=99	=99	=99	=99
1A	0a	2.cc\	2a/
.	.	.	2.cc\
.	.	4b\	.
1r	.	1a	.
.	.	.	4b\
.	.	.	[2a/
=100	=100	=100	=100
1d	0r	2r	4a/]
.	.	.	4g/
.	.	2f/	4f/
.	.	.	4e/
1d	.	2.a/	1f
.	.	4b\	.
=101	=101	=101	=101
2c/	0r	1cc	1g
2e/	.	.	.
2f/	.	2dd\	1r
[2g/	.	[2ee\	.
=102	=102	=102	=102
4g/]	1r	4ee\]	1r
4f/	.	4dd\	.
4e/	.	1cc	.
4f/	.	.	.
1d	1f	.	1dd
.	.	2b\	.
=103	=103	=103	=103
1c	1g	1cc	1ee
[1f	1d	1dd	1a
=104	=104	=104	=104
1f]	1a	2r	0cc
.	.	2a/	.
1e	[1g	[1cc	.
=105	=105	=105	=105
1d	2g/]	2cc\]	0dd
.	4f/	4b\	.
.	4e/	4a/	.
1d	1f	1b	.
=106	=106	=106	=106
0c	1.g	0cc	0ee
.	[2a/	.	.
=107	=107	=107	=107
0d	4a/]	1r	1r
.	4g/	.	.
.	4f/	.	.
.	4e/	.	.
.	1f	1a	1dd
=108	=108	=108	=108
1.c	1g	2cc\	1.ee
.	.	4b\	.
.	.	4a/	.
.	1c	2g/	.
2A/	.	[2a/	2ee\
=109	=109	=109	=109
1.B	1.d	2a/]	1.dd
.	.	4g#i/	.
.	.	4f#i/	.
.	.	1g#i	.
2B/	2d/	.	2dd\
=110	=110	=110	=110
0A	0e	1a	0cc
.	.	[1a	.
=111	=111	=111	=111
1d	1f	1a]	1dd
1c	1g	1cc	1ee
=112	=112	=112	=112
1f	1d	1dd	1a
2r	1a	1r	1cc
2f/	.	.	.
=113	=113	=113	=113
1f	1a	0r	1cc
1f	1a	.	1cc
=114	=114	=114	=114
1g	1dd	1r	1b
1c	1cc	1g	1ee
=115	=115	=115	=115
0c	0cc	0g	0ee
=116	=116	=116	=116
0d	0a	1f	0dd
.	.	4f/	.
.	.	4e/	.
.	.	4f/	.
.	.	4g/	.
=117	=117	=117	=117
2f/	0r	2a/	1r
2g/	.	2b\	.
2.a/	.	2cc\	2r
.	.	2f/	[2cc\
4g/	.	.	.
=118	=118	=118	=118
4f/	1f	1a	2cc\]
4e/	.	.	.
2d/	.	.	1dd
2r	1g	2b\	.
2c/	.	[2cc\	[2ee\
=119	=119	=119	=119
1A	1a	4cc\]	4ee\]
.	.	4dd\	4dd\
.	.	1ee	4cc\
.	.	.	4b\
1d	1f	.	2a/
.	.	2dd\	2b\
=120	=120	=120	=120
1c	1g	2.ee\	2.cc\
.	.	4dd\	4dd\
2r	2r	4cc\	2ee\
.	.	4b\	.
2A/	2e/	2a/	2cc\
=121	=121	=121	=121
2d/	2.f/	2b\	2dd\
2c/	.	2.cc\	2.ee\
.	4g/	.	.
1A	2.a/	.	.
.	.	4b\	4dd\
.	.	4a/	4cc\
.	4b\	4g/	4b\
=122	=122	=122	=122
2r	2cc\	2f/	4a/
.	.	.	4g/
2.a/	2.f/	2.d/	4f/
.	.	.	4e/
.	.	.	1d
4g/	4g/	4e/	.
4f/	[2a/	4f/	.
4e/	.	4g/	.
=123	=123	=123	=123
1.d	2a/]	2.a/	4d/
.	.	.	4e/
.	2.f/	.	4f/
.	.	4g/	4g/
.	.	2f/	4a/
.	4g/	.	4b\
2A/	2a/	[2e/	4cc\
.	.	.	4dd\
=124	=124	=124	=124
2c/	2g/	2e/]	2ee\
2d/	2f/	1.a	1dd
1A	1e	.	.
.	.	.	2cc#i\
=125	=125	=125	=125
0B-	0d	1f	0dd
.	.	1g	.
=126	=126	=126	=126
[0Al	[0el	[0al	[0cc#il
=127	=127	=127	=127
0A]	0e]	0a_	0cc#]
=128	=128	=128	=128
0dl	0dl	0a]	0ddl
==	==	==	==
*-	*-	*-	*-
!!!RDF**kern: l=long note in original notation
!!!RDF**kern: i=editorial accidental
!!!ENC:	Will Watson 15/07/2011
!!!END:	2011/07/15/
!!!EED:	Jesse Rodin
!!!EEV:	2011/11/03/
!!attribution-level@Jos: 4 (questionable)
!!!ONB:	Translated from MusicXML and edited on 2011/11/03/ by Craig Sapp
!!muse2ps: C^@{COA}?\n@{SCT}^u^(2) @{OTL2}^I150v90,90,90,150i2I150c91Q16
